svgs/thin/pallet-box.svg

<svg xmlns="http://www.w3.org/2000/svg" viewBox="0 0 640 512"><!--! Font Awesome Pro 6.6.0 by @fontawesome - https://fontawesome.com License - https://fontawesome.com/license (Commercial License) Copyright 2024 Fonticons, Inc. --><path d="M464 16c17.7 0 32 14.3 32 32l0 192c0 17.7-14.3 32-32 32l-288 0c-17.7 0-32-14.3-32-32l0-192c0-17.7 14.3-32 32-32l80 0 0 120c0 3.1 1.8 6 4.7 7.3s6.2 .8 8.5-1.2L320 98.5l50.8 43.5c2.4 2 5.7 2.5 8.6 1.2s4.7-4.1 4.7-7.3l0-120 80 0zM272 16l96 0 0 102.6L325.2 81.9c-3-2.6-7.4-2.6-10.4 0L272 118.6 272 16zM176 0c-26.5 0-48 21.5-48 48l0 192c0 26.5 21.5 48 48 48l288 0c26.5 0 48-21.5 48-48l0-192c0-26.5-21.5-48-48-48L176 0zM0 360c0 4.4 3.6 8 8 8l72 0 0 128L8 496c-4.4 0-8 3.6-8 8s3.6 8 8 8l80 0 232 0 232 0 80 0c4.4 0 8-3.6 8-8s-3.6-8-8-8l-72 0 0-128 72 0c4.4 0 8-3.6 8-8s-3.6-8-8-8l-80 0-232 0L88 352 8 352c-4.4 0-8 3.6-8 8zM96 496l0-128 216 0 0 128L96 496zm232 0l0-128 216 0 0 128-216 0z"/></svg>

<svg xmlns="http://www.w3.org/2000/svg" viewBox="0 0 640 512"><!--! Font Awesome Pro 6.4.2 by @fontawesome - https://fontawesome.com License - https://fontawesome.com/license (Commercial License) Copyright 2023 Fonticons, Inc. --><path d="M464 16c17.7 0 32 14.3 32 32V240c0 17.7-14.3 32-32 32H176c-17.7 0-32-14.3-32-32V48c0-17.7 14.3-32 32-32h80V136c0 3.1 1.8 6 4.7 7.3s6.2 .8 8.5-1.2L320 98.5l50.8 43.5c2.4 2 5.7 2.5 8.6 1.2s4.7-4.1 4.7-7.3V16h80zM272 16h96V118.6L325.2 81.9c-3-2.6-7.4-2.6-10.4 0L272 118.6V16zM176 0c-26.5 0-48 21.5-48 48V240c0 26.5 21.5 48 48 48H464c26.5 0 48-21.5 48-48V48c0-26.5-21.5-48-48-48H176zM0 360c0 4.4 3.6 8 8 8H80V496H8c-4.4 0-8 3.6-8 8s3.6 8 8 8H88 320 552h80c4.4 0 8-3.6 8-8s-3.6-8-8-8H560V368h72c4.4 0 8-3.6 8-8s-3.6-8-8-8H552 320 88 8c-4.4 0-8 3.6-8 8zM96 496V368H312V496H96zm232 0V368H544V496H328z"/></svg>
